src/assets/plus-red-round.svg

<svg xmlns="http://www.w3.org/2000/svg" viewBox="0 0 24 24"><g fill="none" fill-rule="evenodd"><path d="M0 0h24v24H0z"/><path fill="#b00b39" fill-rule="nonzero" d="M12 2C6.48 2 2 6.48 2 12s4.48 10 10 10 10-4.48 10-10S17.52 2 12 2zm4 11h-3v3c0 .55-.45 1-1 1s-1-.45-1-1v-3H8c-.55 0-1-.45-1-1s.45-1 1-1h3V8c0-.55.45-1 1-1s1 .45 1 1v3h3c.55 0 1 .45 1 1s-.45 1-1 1z"/></g></svg>

<?xml version="1.0" encoding="UTF-8"?>
<svg xmlns="http://www.w3.org/2000/svg" xmlns:xlink="http://www.w3.org/1999/xlink" width="24px" height="24px" version="1.1" viewBox="0 0 24 24">
<!--Generator: Sketch 55.1 (78136) - https://sketchapp.com-->
    <title>
        ic-round-add_circle
    </title>
    <desc>
        Created with Sketch.
    </desc>
    <g id="ic-round-add_circle" fill="none" fill-rule="evenodd" stroke="none" stroke-width="1">
        <g id="round-add_circle-24px">
            <polygon id="Path" points="0 0 24 0 24 24 0 24"/>
            <path id="Shape" fill="#b00b39" fill-rule="nonzero" d="M12,2 C6.48,2 2,6.48 2,12 C2,17.52 6.48,22 12,22 C17.52,22 22,17.52 22,12 C22,6.48 17.52,2 12,2 Z M16,13 L13,13 L13,16 C13,16.55 12.55,17 12,17 C11.45,17 11,16.55 11,16 L11,13 L8,13 C7.45,13 7,12.55 7,12 C7,11.45 7.45,11 8,11 L11,11 L11,8 C11,7.45 11.45,7 12,7 C12.55,7 13,7.45 13,8 L13,11 L16,11 C16.55,11 17,11.45 17,12 C17,12.55 16.55,13 16,13 Z"/>
        </g>
    </g>
</svg>
